src/img/svg/men.svg

<svg width="38" height="24" viewBox="0 0 38 24" fill="none" xmlns="http://www.w3.org/2000/svg">
<path d="M25.667 10.3333C28.4337 10.3333 30.6503 8.09992 30.6503 5.33325C30.6503 2.56659 28.4337 0.333252 25.667 0.333252C22.9003 0.333252 20.667 2.56659 20.667 5.33325C20.667 8.09992 22.9003 10.3333 25.667 10.3333ZM12.3337 10.3333C15.1003 10.3333 17.317 8.09992 17.317 5.33325C17.317 2.56659 15.1003 0.333252 12.3337 0.333252C9.56699 0.333252 7.33366 2.56659 7.33366 5.33325C7.33366 8.09992 9.56699 10.3333 12.3337 10.3333ZM12.3337 13.6666C8.45033 13.6666 0.666992 15.6166 0.666992 19.4999V23.6666H24.0003V19.4999C24.0003 15.6166 16.217 13.6666 12.3337 13.6666ZM25.667 13.6666C25.1837 13.6666 24.6337 13.6999 24.0503 13.7499C25.9837 15.1499 27.3337 17.0333 27.3337 19.4999V23.6666H37.3337V19.4999C37.3337 15.6166 29.5503 13.6666 25.667 13.6666Z" fill="white"/>
</svg>

<svg width="38" height="24" fill="none" xmlns="http://www.w3.org/2000/svg"><path d="M25.667 10.333a4.98 4.98 0 0 0 4.983-5c0-2.766-2.216-5-4.983-5-2.767 0-5 2.234-5 5 0 2.767 2.233 5 5 5zm-13.333 0a4.98 4.98 0 0 0 4.983-5c0-2.766-2.217-5-4.983-5-2.767 0-5 2.234-5 5 0 2.767 2.233 5 5 5zm0 3.334C8.45 13.667.667 15.617.667 19.5v4.167H24V19.5c0-3.883-7.783-5.833-11.666-5.833zm13.333 0c-.483 0-1.033.033-1.617.083 1.934 1.4 3.284 3.283 3.284 5.75v4.167h10V19.5c0-3.883-7.784-5.833-11.667-5.833z" fill="#fff"/></svg>
